packages/match-icons/product/svg/taskrouter.svg

<svg fill="none" height="32" viewBox="0 0 32 32" width="32" xmlns="http://www.w3.org/2000/svg" xmlns:xlink="http://www.w3.org/1999/xlink"><clipPath id="a"><path d="m0 0h32v32h-32z"/></clipPath><g clip-path="url(#a)" fill="#394762"><path d="m26 12 6-3-6-3z"/><path d="m24 23c0-.2652-.1054-.5196-.2929-.7071s-.4419-.2929-.7071-.2929h-1c-3.2 0-5-2.8-6.8-6 1.8-3.2 3.6-6 6.8-6h1c.2652 0 .5196-.10536.7071-.29289.1875-.18754.2929-.44189.2929-.70711s-.1054-.51957-.2929-.70711c-.1875-.18753-.4419-.29289-.7071-.29289h-1c-3.9 0-6.2 2.9-8 6-1.8-3.1-4.1-6-8-6h-5c-.265216 0-.51957.10536-.707107.29289-.187536.18754-.292893.44189-.292893.70711s.105357.51957.292893.70711c.187537.18753.441891.29289.707107.29289h5c3.2 0 5 2.8 6.8 6-1.8 3.2-3.6 6-6.8 6h-5c-.265216 0-.51957.1054-.707107.2929-.187536.1875-.292893.4419-.292893.7071s.105357.5196.292893.7071c.187537.1875.441891.2929.707107.2929h5c3.9 0 6.2-2.9 8-6 1.8 3.1 4.1 6 8 6h1c.2652 0 .5196-.1054.7071-.2929s.2929-.4419.2929-.7071z"/><path d="m26 26 6-3-6-3z"/></g></svg>

<svg width="32" height="32" viewBox="0 0 32 32" fill="none" xmlns="http://www.w3.org/2000/svg">
<g clip-path="url(#clip0)">
<path d="M26 12L32 9L26 6V12Z" fill="#394762"/>
<path d="M24 23C24 22.7348 23.8946 22.4804 23.7071 22.2929C23.5196 22.1054 23.2652 22 23 22H22C18.8 22 17 19.2 15.2 16C17 12.8 18.8 10 22 10H23C23.2652 10 23.5196 9.89464 23.7071 9.70711C23.8946 9.51957 24 9.26522 24 9C24 8.73478 23.8946 8.48043 23.7071 8.29289C23.5196 8.10536 23.2652 8 23 8H22C18.1 8 15.8 10.9 14 14C12.2 10.9 9.9 8 6 8H1C0.734784 8 0.48043 8.10536 0.292893 8.29289C0.105357 8.48043 0 8.73478 0 9C0 9.26522 0.105357 9.51957 0.292893 9.70711C0.48043 9.89464 0.734784 10 1 10H6C9.2 10 11 12.8 12.8 16C11 19.2 9.2 22 6 22H1C0.734784 22 0.48043 22.1054 0.292893 22.2929C0.105357 22.4804 0 22.7348 0 23C0 23.2652 0.105357 23.5196 0.292893 23.7071C0.48043 23.8946 0.734784 24 1 24H6C9.9 24 12.2 21.1 14 18C15.8 21.1 18.1 24 22 24H23C23.2652 24 23.5196 23.8946 23.7071 23.7071C23.8946 23.5196 24 23.2652 24 23Z" fill="#394762"/>
<path d="M26 26L32 23L26 20V26Z" fill="#394762"/>
</g>
<defs>
<clipPath id="clip0">
<rect width="32" height="32" fill="white"/>
</clipPath>
</defs>
</svg>
